!!!SOCIAL_FUNCTION:	songs concerning the sacred stones
!!!PDT:	1918

Specific Region: Dakotas, Minnesota, Montana, Nebraska
!!!REG: Dakotas and Montana
!!!LING_GROUP: Siouan
!!!LANG: Tone
!!!OTL@ENG: I Sing for the Animals
!!!ONM: No. 61
**kern
*Imale
*clefF4
*k[b-e-a-d-g-c-]
*M3/4
*MM84
8d-
=1
8d-
16d-
16B-
4B-
8d-
32d-
16.d-
=2
8.B-
16B-
2B-
=3||
*M2/4
4.B-
8d-
=4||
*M3/4
8d-
16d-
16B-
4B-
8d-
32d-
16.d-
=5
8.B-
16B-
4.B-
8B-
=6||
*M2/4
8A-
8A-
16.A-
32A-
8A-
=7
8G-
8E-
8G-
8G-
=8||
*M3/4
8.E-
16E-
4.E-
8E-
=9
8E-
16E-
16E-
4D-
16.D-
32D-
8D-
=10||
*M2/4
8.BB-
16BB-
4BB-
=11
4.BB-
8d-
=12||
*M3/4
8d-
8d-
4B-
8d-
32d-
16.d-
=13
8.B-
16B-
4.B-
8B-
=14||
*M2/4
8A-
8A-
16.A-
32A-
8A-
=15
8G-
8E-
8G-
8G-
=16||
*M3/4
8.E-
16E-
2E-
=17||
*M2/4
8E-
8E-
!!!RNB: Second beat of bar 17 in source has spurious dotted rhythm: 8-32.-32-16
8D-
32D-
32D-
16D-
=18||
*M3/4
8.BB-
16BB-
2BB-
==
*-
!!!CNT: Native American -- Sioux
!!!MRD: 1911/07//-1914///
!!!OCL: Frances Densmore
!!!YOR1: Teton Sioux Music, Bulletin 61,
!!!YOR2: Bureau of American Ethnology, Smithsonian Institution
!!!PPR: Government Printing Office
!!!PPP: Washington, D.C.
!!!PDT: 1918///
!!!ENC: Craig Stuart Sapp
!!!END: 2002/03/25/
!!!EEV: 2002/03/31/
!!!AGN: Song of Personal Dreams/Song Concerning the Sacred Stones
!!!MPN@@SIO: Ishn'la-wicha'
!!!MPN@ENG: Lone Man
!!!TXO: Teton Sioux
!!!MLC: Standing Rock Reservation, South Dakota, United States of America
!!!ARL: 45.9/-100.7#
!!!catalog: Catalogue No. 489
!!!PPG: 215
!!!EFL: 61/245
!!!VTS: 322816624
